X:107
U: ~ = !turn!
%%topmargin 3cm
T:Killimore Jig
B:Traditional Irish Fiddle Tunes. Randy Miller and Jack Perron.
Z:Transcribed by Ralph Palmer
S:Sean Ryan
R:Jig
L:1/8
M:6/8
K:G
DEF ~G3 | BAG ABc | ~d3 f/2g/2af | ded cAF |
DEF ~G3 | BAG ABc | ~d3 fed | cAF G2 E ::
GBd ~g3 | dgb gdB | GBd ~g3 | fed cAF |
GBd ~g3 | [Bd]gb gdB | GBd fed | eAF G2 E :|]
